assets/images/peiyang_shield.svg

<svg width="248" height="338" viewBox="0 0 248 338" fill="none" xmlns="http://www.w3.org/2000/svg">
<path opacity="0.1" d="M156.269 280.439C154.948 281.615 154.288 282.948 154.288 284.437C154.288 285.927 154.948 287.26 156.269 288.436C157.589 289.612 159.57 290.396 161.844 290.396C164.045 290.396 166.026 289.612 167.42 288.436C168.741 287.26 169.401 285.927 169.401 284.437C169.401 283.026 168.741 281.615 167.42 280.439C166.1 279.341 164.119 278.557 161.844 278.557C159.497 278.557 157.589 279.341 156.269 280.439ZM128.683 288.122C130.15 286.946 130.737 285.613 130.737 284.202C130.737 282.791 130.077 281.458 128.683 280.282C127.216 279.106 125.088 278.322 122.594 278.322C120.173 278.322 117.972 279.106 116.578 280.282C115.111 281.458 114.524 282.791 114.524 284.202C114.524 285.535 115.184 286.946 116.578 288.122C117.972 289.298 120.173 290.082 122.594 290.082C125.088 290.161 127.216 289.298 128.683 288.122ZM113.937 304.351C113.937 305.762 114.597 307.095 116.138 308.35C117.678 309.604 120.026 310.466 122.667 310.466C125.308 310.466 127.656 309.604 129.197 308.35C130.737 307.095 131.398 305.684 131.398 304.351C131.398 302.94 130.737 301.529 129.197 300.353C127.656 299.098 125.308 298.236 122.667 298.236C120.026 298.236 117.752 299.098 116.211 300.353C114.597 301.529 113.937 302.94 113.937 304.351ZM55.1709 174.833C55.1709 174.755 55.6111 168.561 56.7116 159.78C57.8854 151 59.7196 139.632 62.7275 129.126C64.7818 122.07 67.2762 115.484 70.5776 110.075C71.8982 107.958 73.3655 105.998 75.0529 104.351C72.7053 91.1015 69.9907 84.2807 69.9174 84.0455C68.9636 81.6935 69.9174 78.9494 72.1917 77.9302C74.3927 76.911 76.9604 77.9302 77.9142 80.3606C78.1343 80.9094 87.9653 105.135 87.2316 151.862C86.8648 175.225 83.8568 204.234 75.6399 238.651C75.1263 240.768 73.2922 242.18 71.3113 242.18C70.9445 242.18 70.651 242.101 70.2842 242.023C67.9365 241.396 66.5426 238.887 67.1295 236.378C75.1263 202.587 78.0609 174.363 78.4278 151.705C78.6479 138.22 77.9876 126.774 76.8871 117.287C75.9333 119.012 74.9796 121.051 74.0992 123.246C71.6781 129.204 69.7706 136.574 68.23 143.787C65.222 158.212 64.0481 172.246 63.828 175.225C63.828 175.617 63.7547 175.853 63.7547 175.853C63.6079 178.44 61.7004 180.4 59.4261 180.4H59.0593C56.7849 179.929 55.0242 177.577 55.1709 174.833ZM88.6256 275.029C88.6256 272.834 90.3863 271.109 92.5873 271.109C94.7883 271.109 96.549 272.834 96.549 275.029V314.308C96.549 316.503 94.7883 318.228 92.5873 318.228C90.4597 318.228 88.6256 316.503 88.6256 314.308V275.029ZM106.453 80.2038C107.407 77.8518 109.975 76.7542 112.176 77.8518C114.377 78.871 115.404 81.615 114.45 83.967L114.377 84.1239C114.304 84.2807 114.23 84.5159 114.083 84.8295C113.863 85.4567 113.496 86.4759 113.056 87.8871C112.176 90.6311 111.075 94.8648 109.902 100.51C109.681 101.686 109.461 102.94 109.168 104.273C110.855 105.919 112.323 107.879 113.643 109.996C115.551 113.054 117.165 116.582 118.632 120.345C121.493 127.793 123.548 136.26 125.088 144.336C128.17 160.408 129.123 174.677 129.123 174.833C129.27 177.577 127.509 179.929 125.088 180.086H124.795C122.52 180.086 120.613 178.126 120.466 175.539V175.304C120.466 175.147 120.466 174.912 120.393 174.52C120.319 173.814 120.246 172.873 120.173 171.541C119.953 169.032 119.586 165.425 118.999 161.192C117.898 152.724 116.064 141.827 113.276 132.105C111.662 126.303 109.608 121.051 107.407 117.052C106.307 126.539 105.646 137.985 105.866 151.47C106.233 174.128 109.168 202.352 117.165 236.143C117.752 238.652 116.358 241.16 114.01 241.788C113.643 241.866 113.35 241.944 112.983 241.944C111.002 241.944 109.168 240.533 108.654 238.416C100.511 203.998 97.4294 174.99 97.0626 151.627C96.4023 104.978 106.233 80.7526 106.453 80.2038ZM106.013 304.351C106.013 300.196 108.141 296.511 111.222 294.159L111.369 294.081C108.581 291.729 106.6 288.201 106.6 284.281C106.6 280.204 108.654 276.676 111.589 274.245C114.524 271.815 118.412 270.482 122.594 270.482C126.776 270.482 130.664 271.815 133.599 274.245C136.533 276.597 138.587 280.204 138.587 284.281C138.587 288.201 136.607 291.729 133.819 294.081L133.965 294.238C136.973 296.668 139.174 300.274 139.174 304.43C139.174 308.585 137.047 312.27 133.965 314.622C130.884 317.052 126.922 318.385 122.52 318.385C118.192 318.385 114.157 316.974 111.075 314.622C108.214 312.113 106.013 308.507 106.013 304.351ZM144.53 175.382C144.53 166.837 144.897 159.545 145.484 153.352C145.704 150.764 147.905 148.961 150.253 149.196C152.674 149.432 154.434 151.705 154.141 154.292C153.554 160.094 153.187 167.072 153.187 175.382C153.187 187.534 153.994 202.587 156.195 220.776C156.489 223.363 154.801 225.637 152.454 226.029L151.867 226.107C149.739 226.107 147.832 224.383 147.538 222.031C145.337 203.371 144.53 188.005 144.53 175.382ZM146.364 284.437C146.438 276.362 153.701 270.639 161.771 270.639C168.08 270.639 173.803 274.089 176.077 279.42L176.518 280.125C176.664 280.439 177.985 283.575 177.985 288.358C178.132 296.119 174.096 308.193 157.736 317.679C157.149 318.071 156.415 318.228 155.755 318.228C154.434 318.228 153.114 317.523 152.38 316.268C151.28 314.387 151.867 311.956 153.774 310.858C161.918 305.998 166.026 301.137 168.154 296.903C166.246 297.687 164.119 298.079 161.918 298.158C153.701 298.158 146.438 292.513 146.364 284.437ZM180.333 226.029C178.205 226.029 176.297 224.304 176.004 221.952C173.73 203.371 172.923 188.005 172.923 175.304C172.923 166.758 173.289 159.467 173.876 153.273C174.096 150.686 176.224 148.883 178.645 149.118C181.066 149.353 182.827 151.627 182.533 154.214C181.947 160.016 181.58 166.993 181.58 175.304C181.58 187.456 182.387 202.509 184.588 220.698C184.881 223.285 183.194 225.559 180.846 225.951L180.333 226.029ZM182.533 312.191C183.194 310.074 185.395 308.977 187.449 309.604C188.843 310.074 190.75 310.231 193.025 310.388C193.392 310.388 193.758 310.388 194.125 310.388C196.913 310.388 199.848 309.682 201.829 308.506C203.883 307.252 204.91 305.919 205.203 303.802C205.277 303.41 205.277 303.018 205.277 302.705C205.203 299.882 204.176 298.863 201.902 297.53C199.701 296.354 196.4 295.884 194.052 295.884C192.951 295.884 192.071 295.962 191.778 296.041C190.604 296.511 189.21 296.354 188.109 295.57C187.009 294.786 186.348 293.61 186.422 292.278L186.569 275.657C186.642 273.54 188.403 271.737 190.53 271.737H206.084C208.285 271.737 210.046 273.54 210.046 275.657C210.046 277.852 208.285 279.577 206.084 279.577H194.419L194.345 287.887C197.573 287.966 201.682 288.514 205.57 290.396C209.532 292.278 213.274 296.59 213.2 302.548C213.2 303.254 213.127 303.881 213.054 304.665C212.467 309.447 209.459 313.132 205.864 315.171C202.342 317.287 198.16 318.15 194.199 318.15C193.685 318.15 193.098 318.15 192.585 318.071C190.237 317.915 187.742 317.679 185.175 316.895C183.047 316.503 181.873 314.23 182.533 312.191ZM213.714 242.415C211.293 242.415 209.312 240.298 209.312 237.789V180.4H195.593C193.098 180.4 191.117 178.283 191.117 175.774C191.117 173.187 193.098 171.149 195.593 171.149H209.312V153.038H195.593C193.098 153.038 191.117 150.921 191.117 148.334C191.117 145.747 193.098 143.708 195.593 143.708H209.312V125.519H195.593C193.098 125.519 191.117 123.403 191.117 120.894C191.117 118.307 193.098 116.19 195.593 116.19H201.022C201.095 114.7 201.168 113.132 201.168 111.643C201.168 104.351 199.994 96.0407 196.253 84.1239C195.519 81.6934 196.693 79.0278 198.967 78.1654C201.242 77.303 203.736 78.6358 204.47 81.1446C208.432 93.7671 209.825 103.254 209.825 111.721C209.825 113.289 209.752 114.779 209.679 116.268H217.382C217.309 114.779 217.235 113.289 217.235 111.721C217.235 103.254 218.703 93.7671 222.591 81.1446C223.398 78.7142 225.819 77.3814 228.093 78.1654C230.368 79.0278 231.615 81.6934 230.808 84.1239C227.066 96.0407 225.893 104.351 225.893 111.643C225.893 113.211 225.966 114.7 226.039 116.19H231.468C233.963 116.19 235.944 118.307 235.944 120.894C235.944 123.481 233.963 125.519 231.468 125.519H218.116V143.708H231.615C234.109 143.708 236.09 145.825 236.09 148.334C236.09 150.921 234.109 153.038 231.615 153.038H218.116V171.149H231.615C234.109 171.149 236.09 173.265 236.09 175.774C236.09 178.361 234.109 180.4 231.615 180.4H218.116V237.789C218.116 240.376 216.135 242.415 213.714 242.415ZM188.183 112.191C188.183 118.071 187.522 123.481 186.715 128.655C186.348 130.929 184.514 132.497 182.387 132.497L181.653 132.419C179.305 131.948 177.691 129.596 178.132 127.009C178.939 122.07 179.452 117.366 179.452 112.113C179.452 104.351 178.278 95.4919 174.537 83.7318C173.803 81.3014 174.977 78.6358 177.251 77.8518C179.525 76.9894 182.02 78.3222 182.754 80.7526C186.789 93.2967 188.183 103.332 188.183 112.191ZM173.95 111.486C173.95 116.66 173.436 121.443 172.702 126.225C171.969 131.007 171.088 135.712 170.208 141.043C168.741 149.902 167.42 160.486 167.42 175.539C167.42 190.67 168.741 210.27 172.702 236.848C173.069 239.357 171.455 241.788 169.108 242.18L168.447 242.258C166.32 242.258 164.486 240.612 164.119 238.338C160.084 211.368 158.69 191.298 158.69 175.539C158.69 159.859 160.084 148.569 161.624 139.396C162.505 133.987 163.458 129.204 164.119 124.735C164.779 120.267 165.219 116.033 165.219 111.486C165.219 104.038 164.045 95.5704 160.304 83.7318C159.497 81.3014 160.744 78.6358 163.018 77.8518C165.293 76.9894 167.787 78.3222 168.521 80.7526C172.556 93.2967 173.95 102.862 173.95 111.486ZM159.717 112.191C159.717 118.071 159.057 123.481 158.249 128.655C157.883 130.929 156.049 132.497 153.994 132.497L153.261 132.419C150.913 131.948 149.299 129.596 149.739 127.009C150.546 122.07 151.06 117.366 151.06 112.113C151.06 104.351 149.812 95.4919 146.144 83.7318C145.411 81.3014 146.584 78.6358 148.859 77.8518C151.133 76.9894 153.627 78.3222 154.361 80.7526C158.323 93.2967 159.79 103.332 159.717 112.191ZM18.0479 184.869C18.8549 214.191 24.5775 244.924 39.544 273.54C74.466 340.337 132.205 372.089 145.631 378.675C145.631 378.675 208.358 356.409 251.644 273.54C266.61 244.924 272.406 214.191 273.213 184.869C254.872 177.656 242.473 162.917 243.28 146.531C243.867 133.203 253.038 121.835 266.61 115.092C258.76 77.2246 247.022 51.0388 247.022 51.0388C194.199 71.031 145.704 24.6178 145.704 24.6178C145.704 24.6178 97.136 71.031 44.3862 51.0388C44.3862 51.0388 32.5743 77.2246 24.7975 115.092C38.3702 121.756 47.5409 133.203 48.1278 146.531C48.6413 162.917 36.3159 177.656 18.0479 184.869ZM32.9411 278.165C17.1675 247.981 11.1515 215.602 10.3445 185.182L10.1978 178.675L15.5535 176.558C23.477 173.422 29.9331 168.718 34.115 163.622C38.3702 158.448 40.2777 153.195 40.3511 147.942C40.3511 147.628 40.3511 147.315 40.3511 147.08C40.131 142.689 38.5903 138.456 35.4356 134.3C32.2808 130.145 27.5854 126.303 21.7162 123.403L15.7736 120.423L17.2409 113.132C25.3111 74.2454 37.343 47.5108 37.4898 47.0404L40.4978 40.2979L46.7338 42.6499C56.4181 46.3348 65.9556 47.8244 75.1263 47.8244H75.3464C109.461 47.8244 138.001 20.0706 140.935 17.6401L141.155 17.4833L145.631 13.7985L150.106 17.4833L150.326 17.6401C153.187 19.9922 181.873 47.9028 216.135 47.8244C225.306 47.8244 234.843 46.3348 244.527 42.6499L250.763 40.2979L253.771 47.0404C253.918 47.4324 264.85 71.6581 272.846 107.487C272.993 108.271 273.213 109.055 273.36 109.839C273.433 110.153 273.507 110.466 273.58 110.78C273.653 111.25 273.8 111.721 273.874 112.191C273.947 112.505 274.02 112.818 274.094 113.132L274.754 116.503L275.561 120.423L269.618 123.403C263.676 126.303 258.98 130.145 255.899 134.3C252.744 138.456 251.204 142.689 250.983 147.08C250.983 147.315 250.983 147.628 250.983 147.942C250.983 153.116 252.964 158.448 257.22 163.622C261.401 168.718 267.858 173.422 275.781 176.558L281.137 178.675L280.99 184.006L280.917 185.182C280.11 215.602 274.094 247.981 258.32 278.165C221.931 347.628 162.872 379.851 148.639 386.907L145.631 387.926L142.623 386.907C128.39 379.851 69.3304 347.55 32.9411 278.165ZM24.6508 283.889C62.8743 356.566 123.621 389.494 138.808 397.099L145.631 400L152.454 397.099C167.64 389.494 228.314 356.566 266.61 283.889C283.411 251.744 289.794 217.405 290.601 185.496V184.869L290.968 170.757C290.968 170.757 274.24 165.269 269.178 161.662C261.548 156.174 259.421 149.745 263.089 141.435C266.61 133.516 286.786 126.774 286.786 126.774L283.411 110.388C283.191 109.29 282.971 108.271 282.751 107.252C274.461 68.7573 262.722 42.7283 262.355 41.7875L255.532 26.6562L241.446 31.9875C232.789 35.2803 224.278 36.6131 216.062 36.6131C184.734 36.9267 156.856 9.56486 155.608 8.31045L145.484 0L135.359 8.31045C134.112 9.48646 106.233 36.9267 74.9062 36.6131C66.6893 36.6131 58.1789 35.2803 49.5217 31.9875L35.4356 26.6562L28.6126 41.7875C28.1724 42.7283 15.8469 70.2469 7.48327 110.388L4.10845 126.774C4.10845 126.774 24.284 133.438 27.8055 141.435C31.5472 149.745 29.4196 156.174 21.7896 161.662C16.8007 165.19 0 170.757 0 170.757L0.366828 185.496C1.46731 217.405 7.8501 251.744 24.6508 283.889Z" fill="white"/>
</svg>

<svg width="248" height="338" fill="none" xmlns="http://www.w3.org/2000/svg"><path opacity=".1" d="M156.269 280.439c-1.321 1.176-1.981 2.509-1.981 3.998 0 1.49.66 2.823 1.981 3.999 1.32 1.176 3.301 1.96 5.575 1.96 2.201 0 4.182-.784 5.576-1.96 1.321-1.176 1.981-2.509 1.981-3.999 0-1.411-.66-2.822-1.981-3.998-1.32-1.098-3.301-1.882-5.576-1.882-2.347 0-4.255.784-5.575 1.882Zm-27.586 7.683c1.467-1.176 2.054-2.509 2.054-3.92s-.66-2.744-2.054-3.92c-1.467-1.176-3.595-1.96-6.089-1.96-2.421 0-4.622.784-6.016 1.96-1.467 1.176-2.054 2.509-2.054 3.92 0 1.333.66 2.744 2.054 3.92 1.394 1.176 3.595 1.96 6.016 1.96 2.494.079 4.622-.784 6.089-1.96Zm-14.746 16.229c0 1.411.66 2.744 2.201 3.999 1.54 1.254 3.888 2.116 6.529 2.116s4.989-.862 6.53-2.116c1.54-1.255 2.201-2.666 2.201-3.999 0-1.411-.661-2.822-2.201-3.998-1.541-1.255-3.889-2.117-6.53-2.117-2.641 0-4.915.862-6.456 2.117-1.614 1.176-2.274 2.587-2.274 3.998ZM55.171 174.833c0-.078.44-6.272 1.54-15.053 1.174-8.78 3.009-20.148 6.017-30.654 2.054-7.056 4.548-13.642 7.85-19.051 1.32-2.117 2.787-4.077 4.475-5.724-2.348-13.25-5.062-20.07-5.136-20.305-.953-2.353 0-5.097 2.275-6.116 2.2-1.019 4.768 0 5.722 2.43.22.55 10.051 24.775 9.318 71.502-.367 23.363-3.375 52.372-11.592 86.789-.514 2.117-2.348 3.529-4.329 3.529-.367 0-.66-.079-1.027-.157-2.348-.627-3.741-3.136-3.155-5.645 7.997-33.791 10.932-62.015 11.299-84.673.22-13.485-.44-24.931-1.54-34.418-.955 1.725-1.908 3.764-2.789 5.959-2.42 5.958-4.328 13.328-5.869 20.541-3.008 14.425-4.182 28.459-4.402 31.438 0 .392-.073.628-.073.628-.147 2.587-2.055 4.547-4.329 4.547h-.367c-2.274-.471-4.035-2.823-3.888-5.567Zm33.455 100.196c0-2.195 1.76-3.92 3.961-3.92 2.201 0 3.962 1.725 3.962 3.92v39.279c0 2.195-1.76 3.92-3.962 3.92-2.127 0-3.961-1.725-3.961-3.92v-39.279Zm17.827-194.825c.954-2.352 3.522-3.45 5.723-2.352 2.201 1.019 3.228 3.763 2.274 6.115l-.073.157c-.073.157-.147.392-.294.706-.22.627-.587 1.646-1.027 3.057-.88 2.744-1.981 6.978-3.154 12.623-.221 1.176-.441 2.43-.734 3.763 1.687 1.646 3.155 3.606 4.475 5.723 1.908 3.058 3.522 6.586 4.989 10.349 2.861 7.448 4.916 15.915 6.456 23.991 3.082 16.072 4.035 30.341 4.035 30.497.147 2.744-1.614 5.096-4.035 5.253h-.293c-2.275 0-4.182-1.96-4.329-4.547v-.235c0-.157 0-.392-.073-.784a61.604 61.604 0 0 1-.22-2.979c-.22-2.509-.587-6.116-1.174-10.349-1.101-8.468-2.935-19.365-5.723-29.087-1.614-5.802-3.668-11.054-5.869-15.053-1.1 9.487-1.761 20.933-1.541 34.418.367 22.658 3.302 50.882 11.299 84.673.587 2.509-.807 5.017-3.155 5.645-.367.078-.66.156-1.027.156-1.981 0-3.815-1.411-4.329-3.528-8.143-34.418-11.225-63.426-11.591-86.789-.66-46.649 9.17-70.874 9.39-71.423Zm-.44 224.147c0-4.155 2.128-7.84 5.209-10.192l.147-.078c-2.788-2.352-4.769-5.88-4.769-9.8 0-4.077 2.054-7.605 4.989-10.036 2.935-2.43 6.823-3.763 11.005-3.763s8.07 1.333 11.005 3.763c2.934 2.352 4.988 5.959 4.988 10.036 0 3.92-1.98 7.448-4.768 9.8l.146.157c3.008 2.43 5.209 6.036 5.209 10.192 0 4.155-2.127 7.84-5.209 10.192-3.081 2.43-7.043 3.763-11.445 3.763-4.328 0-8.363-1.411-11.445-3.763-2.861-2.509-5.062-6.115-5.062-10.271Zm38.517-128.969c0-8.545.367-15.837.954-22.03.22-2.588 2.421-4.391 4.769-4.156 2.421.236 4.181 2.509 3.888 5.096-.587 5.802-.954 12.78-.954 21.09 0 12.152.807 27.205 3.008 45.394.294 2.587-1.394 4.861-3.741 5.253l-.587.078c-2.128 0-4.035-1.724-4.329-4.076-2.201-18.66-3.008-34.026-3.008-46.649Zm1.834 109.055c.074-8.075 7.337-13.798 15.407-13.798 6.309 0 12.032 3.45 14.306 8.781l.441.705c.146.314 1.467 3.45 1.467 8.233.147 7.761-3.889 19.835-20.249 29.321-.587.392-1.321.549-1.981.549a3.936 3.936 0 0 1-3.375-1.96c-1.1-1.881-.513-4.312 1.394-5.41 8.144-4.86 12.252-9.721 14.38-13.955-1.908.784-4.035 1.176-6.236 1.255-8.217 0-15.48-5.645-15.554-13.721Zm33.969-58.408c-2.128 0-4.036-1.725-4.329-4.077-2.274-18.581-3.081-33.947-3.081-46.648 0-8.546.366-15.837.953-22.031.22-2.587 2.348-4.39 4.769-4.155 2.421.235 4.182 2.509 3.888 5.096-.586 5.802-.953 12.779-.953 21.09 0 12.152.807 27.205 3.008 45.394.293 2.587-1.394 4.861-3.742 5.253l-.513.078Zm2.2 86.162c.661-2.117 2.862-3.214 4.916-2.587 1.394.47 3.301.627 5.576.784h1.1c2.788 0 5.723-.706 7.704-1.882 2.054-1.254 3.081-2.587 3.374-4.704.074-.392.074-.784.074-1.097-.074-2.823-1.101-3.842-3.375-5.175-2.201-1.176-5.502-1.646-7.85-1.646-1.101 0-1.981.078-2.274.157-1.174.47-2.568.313-3.669-.471-1.1-.784-1.761-1.96-1.687-3.292l.147-16.621c.073-2.117 1.834-3.92 3.961-3.92h15.554c2.201 0 3.962 1.803 3.962 3.92 0 2.195-1.761 3.92-3.962 3.92h-11.665l-.074 8.31c3.228.079 7.337.627 11.225 2.509 3.962 1.882 7.704 6.194 7.63 12.152 0 .706-.073 1.333-.146 2.117-.587 4.782-3.595 8.467-7.19 10.506-3.522 2.116-7.704 2.979-11.665 2.979-.514 0-1.101 0-1.614-.079-2.348-.156-4.843-.392-7.41-1.176-2.128-.392-3.302-2.665-2.642-4.704Zm31.181-69.776c-2.421 0-4.402-2.117-4.402-4.626V180.4h-13.719c-2.495 0-4.476-2.117-4.476-4.626 0-2.587 1.981-4.625 4.476-4.625h13.719v-18.111h-13.719c-2.495 0-4.476-2.117-4.476-4.704 0-2.587 1.981-4.626 4.476-4.626h13.719v-18.189h-13.719c-2.495 0-4.476-2.116-4.476-4.625 0-2.587 1.981-4.704 4.476-4.704h5.429c.073-1.49.146-3.058.146-4.547 0-7.292-1.174-15.602-4.915-27.52-.734-2.43.44-5.095 2.714-5.958 2.275-.862 4.769.47 5.503 2.98 3.962 12.622 5.355 22.109 5.355 30.576 0 1.568-.073 3.058-.146 4.547h7.703c-.073-1.489-.147-2.979-.147-4.547 0-8.467 1.468-17.954 5.356-30.576.807-2.43 3.228-3.764 5.502-2.98 2.275.863 3.522 3.528 2.715 5.959-3.742 11.917-4.915 20.227-4.915 27.519 0 1.568.073 3.057.146 4.547h5.429c2.495 0 4.476 2.117 4.476 4.704 0 2.587-1.981 4.625-4.476 4.625h-13.352v18.189h13.499c2.494 0 4.475 2.117 4.475 4.626 0 2.587-1.981 4.704-4.475 4.704h-13.499v18.111h13.499c2.494 0 4.475 2.116 4.475 4.625 0 2.587-1.981 4.626-4.475 4.626h-13.499v57.389c0 2.587-1.981 4.626-4.402 4.626Zm-25.531-130.224c0 5.88-.661 11.29-1.468 16.464-.367 2.274-2.201 3.842-4.328 3.842l-.734-.078c-2.348-.471-3.962-2.823-3.521-5.41.807-4.939 1.32-9.643 1.32-14.896 0-7.762-1.174-16.621-4.915-28.381-.734-2.43.44-5.096 2.714-5.88 2.274-.863 4.769.47 5.503 2.9 4.035 12.545 5.429 22.58 5.429 31.439Zm-14.233-.705c0 5.174-.514 9.957-1.248 14.739-.733 4.782-1.614 9.487-2.494 14.818-1.467 8.859-2.788 19.443-2.788 34.496 0 15.131 1.321 34.731 5.282 61.309.367 2.509-1.247 4.94-3.594 5.332l-.661.078c-2.127 0-3.961-1.646-4.328-3.92-4.035-26.97-5.429-47.04-5.429-62.799 0-15.68 1.394-26.97 2.934-36.143.881-5.409 1.834-10.192 2.495-14.661.66-4.468 1.1-8.702 1.1-13.249 0-7.448-1.174-15.916-4.915-27.754-.807-2.43.44-5.096 2.714-5.88 2.275-.863 4.769.47 5.503 2.9 4.035 12.545 5.429 22.11 5.429 30.734Zm-14.233.705c0 5.88-.66 11.29-1.468 16.464-.366 2.274-2.2 3.842-4.255 3.842l-.733-.078c-2.348-.471-3.962-2.823-3.522-5.41.807-4.939 1.321-9.643 1.321-14.896 0-7.762-1.248-16.621-4.916-28.381-.733-2.43.44-5.096 2.715-5.88 2.274-.863 4.768.47 5.502 2.9 3.962 12.545 5.429 22.58 5.356 31.439Zm-141.67 72.678c.808 29.322 6.53 60.055 21.497 88.671 34.922 66.797 92.661 98.549 106.087 105.135 0 0 62.727-22.266 106.013-105.135 14.966-28.616 20.762-59.349 21.569-88.671-18.341-7.213-30.74-21.952-29.933-38.338.587-13.328 9.758-24.696 23.33-31.439-7.85-37.867-19.588-64.053-19.588-64.053-52.823 19.992-101.318-26.421-101.318-26.421S97.136 71.03 44.386 51.038c0 0-11.812 26.187-19.589 64.054 13.573 6.664 22.744 18.111 23.33 31.439.514 16.386-11.811 31.125-30.08 38.338Zm14.894 93.296c-15.774-30.184-21.79-62.563-22.597-92.983l-.146-6.507 5.355-2.117c7.924-3.136 14.38-7.84 18.562-12.936 4.255-5.174 6.163-10.427 6.236-15.68v-.862c-.22-4.391-1.76-8.624-4.915-12.78-3.155-4.155-7.85-7.997-13.72-10.897l-5.942-2.98 1.467-7.291C25.31 74.245 37.343 47.511 37.49 47.04l3.008-6.742 6.236 2.352c9.684 3.685 19.222 5.174 28.392 5.174h.22c34.115 0 62.655-27.753 65.589-30.184l.22-.157 4.476-3.684 4.475 3.684.22.157c2.861 2.352 31.547 30.263 65.809 30.184 9.171 0 18.708-1.49 28.392-5.174l6.236-2.352 3.008 6.742c.147.392 11.079 24.618 19.075 60.447.147.784.367 1.568.514 2.352l.22.941c.073.47.22.941.294 1.411l.22.941.66 3.371.807 3.92-5.943 2.98c-5.942 2.9-10.638 6.742-13.719 10.897-3.155 4.156-4.695 8.389-4.916 12.78v.862c0 5.174 1.981 10.506 6.237 15.68 4.181 5.096 10.638 9.8 18.561 12.936l5.356 2.117-.147 5.331-.073 1.176c-.807 30.42-6.823 62.799-22.597 92.983-36.389 69.463-95.448 101.686-109.681 108.742l-3.008 1.019-3.008-1.019C128.39 379.851 69.33 347.55 32.941 278.165Zm-8.29 5.724c38.223 72.677 98.97 105.605 114.157 113.21l6.823 2.901 6.823-2.901c15.186-7.605 75.86-40.533 114.156-113.21 16.801-32.145 23.184-66.484 23.991-98.393v-.627l.367-14.112s-16.728-5.488-21.79-9.095c-7.63-5.488-9.757-11.917-6.089-20.227 3.521-7.919 23.697-14.661 23.697-14.661l-3.375-16.386c-.22-1.098-.44-2.117-.66-3.136-8.29-38.495-20.029-64.524-20.396-65.464l-6.823-15.132-14.086 5.332c-8.657 3.292-17.168 4.625-25.384 4.625-31.328.314-59.206-27.048-60.454-28.303L145.484 0l-10.125 8.31c-1.247 1.176-29.126 28.617-60.453 28.303-8.217 0-16.727-1.333-25.384-4.625l-14.086-5.332-6.823 15.132c-.44.94-12.766 28.459-21.13 68.6l-3.375 16.386s20.176 6.664 23.697 14.661c3.742 8.31 1.615 14.739-6.015 20.227C16.8 165.19 0 170.757 0 170.757l.367 14.739c1.1 31.909 7.483 66.248 24.284 98.393Z" fill="#fff"/></svg>
